icons/general-add-square-4.svg

<svg fill="none" viewBox="0 0 24 24"><path fill="currentColor" d="M13 7.2a1 1 0 1 0-2 0zm-2 9.6a1 1 0 1 0 2 0zm5.8-3.8a1 1 0 1 0 0-2zm-9.6-2a1 1 0 1 0 0 2zm13.4 1a8.6 8.6 0 0 1-8.6 8.6v2c5.9 0 10.6-4.7 10.6-10.6zm-8.6 8.6a8.6 8.6 0 0 1-8.6-8.6h-2c0 5.9 4.7 10.6 10.6 10.6zm-8.6-8.6a8.6 8.6 0 0 1 8.6-8.6v-2c-5.9 0-10.6 4.7-10.6 10.6zm8.6-8.6a8.6 8.6 0 0 1 8.6 8.6h2c0-5.9-4.7-10.6-10.6-10.6zm-1 3.8v4.8h2v-4.8zm0 4.8v4.8h2v-4.8zm5.8-1h-4.8v2h4.8zm-4.8 0h-4.8v2h4.8z"/></svg>

<svg fill="none" viewBox="0 0 24 24"><path fill="currentColor" d="M13 7.2a1 1 0 1 0-2 0zm-2 9.6a1 1 0 1 0 2 0zm5.8-3.8a1 1 0 1 0 0-2zm-9.6-2a1 1 0 1 0 0 2zm13.4 1a8.6 8.6 0 0 1-8.6 8.6v2c5.9 0 10.6-4.7 10.6-10.6zM12 20.6A8.6 8.6 0 0 1 3.4 12h-2c0 5.9 4.7 10.6 10.6 10.6zM3.4 12A8.6 8.6 0 0 1 12 3.4v-2C6.1 1.4 1.4 6.1 1.4 12zM12 3.4a8.6 8.6 0 0 1 8.6 8.6h2c0-5.9-4.7-10.6-10.6-10.6zm-1 3.8V12h2V7.2zm0 4.8v4.8h2V12zm5.8-1H12v2h4.8zM12 11H7.2v2H12z"/></svg>
